X:30
T:RVW2/2/30 'Twas Down In A Valley
C:Sam Chiles, Willingale Doe, Essex, 14 April 1904
L:1/4
Q:1/4=100
M:3/4
I:linebreak $
K:G
"^(Editorial suggestion)  " G | G B e | d B G/G/ | A G F | G2 d | e g f |$ e d e | d B G | A2 d | 
w: 'Twas|down in a|val- ley a young|dam- sel did|dwell. She|lived with her|un- cle as|all knew full|well. 'Twas|
e g f | e d e | d B G |$ A2 G | G B e | d B G | A G F | G2 |] 
w: down in a|val- ley where|vio- lets are|gay, three|gip- sies be-|trayed her and|stole her a-|way.|



